src/img/event_icons/main_program.svg

<svg fill="none" height="15" viewBox="0 0 18 15" width="18" xmlns="http://www.w3.org/2000/svg"><path d="m6.62109 3.12891 2.05079-2.05079c.16406-.164058.46484-.164058.6289 0l2.05082 2.05079c.164.16406.2734.38281.2734.6289v2.95313l1.0938.65625c.4101.24609.6562.68359.6562 1.14843v6.23438h-2.625v-2.625c0-.957-.79297-1.75-1.77734-1.75-.95704 0-1.75.793-1.75 1.75v2.625h-2.625v-6.23438c0-.46484.24609-.90234.65625-1.14843l1.09375-.65625v-2.95313c0-.24609.10937-.46484.27343-.6289zm-5.71484 6.67187 2.84375-1.55859v6.50781h-2.1875c-.738281 0-1.3125-.5742-1.3125-1.3125v-2.4883c0-.4922.246094-.9297.65625-1.14842zm15.53125 4.94922h-2.1875v-6.50781l2.8164 1.55859c.4102.21872.6836.65622.6836 1.14842v2.4883c0 .7383-.6016 1.3125-1.3125 1.3125z" fill="#000"/></svg>

<svg width="18" height="15" viewBox="0 0 18 15" fill="none" xmlns="http://www.w3.org/2000/svg">
<path d="M6.62109 3.12891L8.67188 1.07812C8.83594 0.914062 9.13672 0.914062 9.30078 1.07812L11.3516 3.12891C11.5156 3.29297 11.625 3.51172 11.625 3.75781V6.71094L12.7188 7.36719C13.1289 7.61328 13.375 8.05078 13.375 8.51562V14.75H10.75V12.125C10.75 11.168 9.95703 10.375 8.97266 10.375C8.01562 10.375 7.22266 11.168 7.22266 12.125V14.75H4.59766V8.51562C4.59766 8.05078 4.84375 7.61328 5.25391 7.36719L6.34766 6.71094V3.75781C6.34766 3.51172 6.45703 3.29297 6.62109 3.12891ZM0.90625 9.80078L3.75 8.24219V14.75H1.5625C0.824219 14.75 0.25 14.1758 0.25 13.4375V10.9492C0.25 10.457 0.496094 10.0195 0.90625 9.80078ZM16.4375 14.75H14.25V8.24219L17.0664 9.80078C17.4766 10.0195 17.75 10.457 17.75 10.9492V13.4375C17.75 14.1758 17.1484 14.75 16.4375 14.75Z" fill="black"/>
</svg>
